X:1
T: Fraser's Lament
C:Bruce Shawyer
R:Strathspey
Q:128
K:Gm
M:4/4
L:1/16
|:d2|Gd3 B3G dcB2 G4|Fc3 A3F cBA2 F4|Gd3 B3G dcB2 G4|d3g ^fgaf g4 G3d|
Gd3 B3G dcB2 G4|Fc3 A3F cBA2 F4|Gd3 B3G dcB2 G4|d3g ^fgaf g4 G3a|
b3g dg3 dg3 b3g|f3d cf3|AF3 c3A|db3 g3d g3d g4|d3g ^fgaf g4 G3a|
b3g dg3 a3f c4|g3e cg3 f3d f4|e3c eg3 d3B e4|d3g ^fgaf g4 G2:|
